packages/icons/svg/Outline/award.svg

<svg fill="none" height="24" viewBox="0 0 24 24" width="24" xmlns="http://www.w3.org/2000/svg"><path clip-rule="evenodd" d="m12.3058 16.707c-.311-.171-.687-.168-.99.013l-3.74804 2.2 1.468-5.71c.875.5 1.88604.79 2.96404.79s2.089-.29 2.965-.79l1.489 5.792zm-.3061-12.70693c2.206 0 4 1.79399 4 4 0 2.20603-1.794 4.00003-4 4.00003-2.20599 0-3.99999-1.794-3.99999-4.00003 0-2.20601 1.794-4 3.99999-4zm6.969 16.75093-2.309-8.979c.836-1.032 1.34-2.343 1.34-3.772 0-3.309-2.691-6-6-6-3.30798 0-5.99998 2.691-5.99998 6 0 1.429.504 2.74 1.34 3.772l-2.308 8.979c-.101.392.044.805.367 1.048.322.243.76.265 1.107.063l5.32998-3.129 5.68 3.142c.151.084.318.125.484.125.217 0 .433-.07.613-.209.315-.244.456-.653.356-1.04z" fill="#6b7280" fill-rule="evenodd"/></svg>

<svg width="24" height="24" viewBox="0 0 24 24" fill="none" xmlns="http://www.w3.org/2000/svg">
<g id="Icon/Outline/award">
<path id="Mask" fill-rule="evenodd" clip-rule="evenodd" d="M12.3057 16.707C11.9947 16.536 11.6187 16.539 11.3157 16.72L7.56772 18.92L9.03572 13.21C9.91072 13.71 10.9217 14 11.9997 14C13.0777 14 14.0887 13.71 14.9647 13.21L16.4537 19.002L12.3057 16.707ZM11.9997 4C14.2057 4 15.9997 5.794 15.9997 8C15.9997 10.206 14.2057 12 11.9997 12C9.79372 12 7.99972 10.206 7.99972 8C7.99972 5.794 9.79372 4 11.9997 4ZM18.9687 20.751L16.6597 11.772C17.4957 10.74 17.9997 9.429 17.9997 8C17.9997 4.691 15.3087 2 11.9997 2C8.69172 2 5.99972 4.691 5.99972 8C5.99972 9.429 6.50372 10.74 7.33972 11.772L5.03172 20.751C4.93072 21.143 5.07572 21.556 5.39872 21.799C5.72072 22.042 6.15872 22.064 6.50572 21.862L11.8357 18.733L17.5157 21.875C17.6667 21.959 17.8337 22 17.9997 22C18.2167 22 18.4327 21.93 18.6127 21.791C18.9277 21.547 19.0687 21.138 18.9687 20.751Z" fill="#000000"/>
</g>
</svg>
